public/img/lefttoright.svg

<svg width="10" height="16" viewBox="0 0 10 16" fill="none" xmlns="http://www.w3.org/2000/svg">
<path d="M3.75 0L4.625 0.966666L2.40625 3.33333L10 3.33333V4.66667L2.40625 4.66667L4.625 7.03333L3.75 8L0 4L3.75 0Z" fill="#A3FF87"/>
<path d="M6.25 16L5.375 15.0333L7.59375 12.6667H0V11.3333H7.59375L5.375 8.96667L6.25 8L10 12L6.25 16Z" fill="#A3FF87"/>
</svg>

<svg xmlns="http://www.w3.org/2000/svg" width="10" height="16" fill="none"><path fill="#A3FF87" d="m3.75 0 .875.967-2.219 2.366H10v1.334H2.406l2.219 2.366L3.75 8 0 4zM6.25 16l-.875-.967 2.219-2.366H0v-1.334h7.594L5.375 8.967 6.25 8 10 12z"/></svg>
